assets/thumbs-up-fill.svg

<svg xmlns="http://www.w3.org/2000/svg" fill="none" viewBox="0 0 23 28">
  <path fill="#2A2238" d="M8.82706 2.61062C8.94283.9453 10.5227-.342426 12.2254.081473l.4648.117552c.8247.206606 1.5567.812175 1.8025 1.718745.3918 1.45337.9493 4.47231.1104 8.0327.2623-.03623.5254-.06652.789-.09083 1.27-.11577 2.9727-.12824 4.4813.37406.9226.3081 1.7704 1.2129 2.1373 2.2673.3277.9475.2849 2.0696-.4168 3.0866.1033.212.1834.431.2458.6465.1371.4809.2012 1.0099.2012 1.5247 0 .5147-.0641 1.0437-.2012 1.5246-.0695.2404-.1603.4862-.285.7195.301.6893.1906 1.4587-.0053 2.0447-.2006.5786-.4942 1.1206-.8692 1.6048.0962.2707.1354.5557.1354.8282 0 .5432-.1586 1.1132-.4507 1.6243C19.7701 27.1486 18.5892 28 16.9203 28h-6.2338c-1.07754 0-1.90574-.1443-2.61105-.3883-.60647-.2214-1.18602-.5106-1.72766-.862l-.08549-.0535c-.89767-.5467-1.77931-1.0846-3.68329-1.2859C1.2147 25.2643 0 24.1635 0 22.6567v-7.1243c0-1.5139 1.22004-2.5505 2.41693-2.8765 1.51215-.4132 2.80343-1.4017 3.79728-2.5113.99741-1.11673 1.62791-2.27978 1.85055-2.91919.35443-1.02412.63407-2.74109.7623-4.61301v-.00178Z"/>
</svg>

<svg width="23" height="28" viewBox="0 0 23 28" fill="none" xmlns="http://www.w3.org/2000/svg">
<path d="M8.82706 2.61062C8.94283 0.9453 10.5227 -0.342426 12.2254 0.081473L12.6902 0.199025C13.5149 0.405631 14.2469 1.0112 14.4927 1.91777C14.8845 3.37114 15.442 6.39008 14.6031 9.95047C14.8654 9.91424 15.1285 9.88395 15.3921 9.85964C16.6621 9.74387 18.3648 9.7314 19.8734 10.2337C20.796 10.5418 21.6438 11.4466 22.0107 12.501C22.3384 13.4485 22.2956 14.5706 21.5939 15.5876C21.6972 15.7996 21.7773 16.0186 21.8397 16.2341C21.9768 16.715 22.0409 17.244 22.0409 17.7588C22.0409 18.2735 21.9768 18.8025 21.8397 19.2834C21.7702 19.5238 21.6794 19.7696 21.5547 20.0029C21.8557 20.6922 21.7453 21.4616 21.5494 22.0476C21.3488 22.6262 21.0552 23.1682 20.6802 23.6524C20.7764 23.9231 20.8156 24.2081 20.8156 24.4806C20.8156 25.0238 20.657 25.5938 20.3649 26.1049C19.7701 27.1486 18.5892 28 16.9203 28H10.6865C9.60896 28 8.78076 27.8557 8.07545 27.6117C7.46898 27.3903 6.88943 27.1011 6.34779 26.7497L6.2623 26.6962C5.36463 26.1495 4.48299 25.6116 2.57901 25.4103C1.2147 25.2643 0 24.1635 0 22.6567V15.5324C0 14.0185 1.22004 12.9819 2.41693 12.6559C3.92908 12.2427 5.22036 11.2542 6.21421 10.1446C7.21162 9.02787 7.84212 7.86482 8.06476 7.22541C8.41919 6.20129 8.69883 4.48432 8.82706 2.6124V2.61062Z" fill="#2A2238"/>
</svg>
